Papirus/64x64/apps/Onivim2.svg

<?xml version="1.0" encoding="UTF-8" standalone="no"?>
<svg
   id="_图层_1"
   version="1.1"
   viewBox="0 0 64 64" width="64" height="64"
   sodipodi:docname="Onivim2.svg"
   xml:space="preserve"
   inkscape:version="1.4 (e7c3feb100, 2024-10-09)"
   xmlns:inkscape="http://www.inkscape.org/namespaces/inkscape"
   xmlns:sodipodi="http://sodipodi.sourceforge.net/DTD/sodipodi-0.dtd"
   xmlns="http://www.w3.org/2000/svg"
   xmlns:svg="http://www.w3.org/2000/svg"><sodipodi:namedview
     id="namedview26"
     pagecolor="#505050"
     bordercolor="#eeeeee"
     borderopacity="1"
     inkscape:showpageshadow="0"
     inkscape:pageopacity="0"
     inkscape:pagecheckerboard="0"
     inkscape:deskcolor="#505050"
     inkscape:zoom="10.6875"
     inkscape:cx="32"
     inkscape:cy="32"
     inkscape:window-width="1920"
     inkscape:window-height="939"
     inkscape:window-x="0"
     inkscape:window-y="34"
     inkscape:window-maximized="1"
     inkscape:current-layer="g59"
     showguides="true"><sodipodi:guide
       position="24.129209,43.688782"
       orientation="1,0"
       id="guide47"
       inkscape:locked="false" /><sodipodi:guide
       position="39.990611,54.528988"
       orientation="1,0"
       id="guide48"
       inkscape:locked="false" /><sodipodi:guide
       position="31.294665,46.979418"
       orientation="0,-1"
       id="guide49"
       inkscape:locked="false" /><sodipodi:guide
       position="22.407535,30.743878"
       orientation="0,-1"
       id="guide50"
       inkscape:locked="false" /></sodipodi:namedview><!-- Generator: Adobe Illustrator 29.0.1, SVG Export Plug-In . SVG Version: 2.1.0 Build 192)  --><defs
     id="defs6"><style
       id="style1">
      .st0 {
        fill-opacity: .5;
      }

      .st0, .st1, .st2, .st3, .st4, .st5, .st6, .st7 {
        fill: #fff;
      }

      .st8 {
        fill: #133c9a;
      }

      .st2, .st9 {
        display: none;
      }

      .st3 {
        fill-opacity: .2;
      }

      .st4 {
        fill-opacity: .9;
      }

      .st10 {
        fill: #3370ff;
      }

      .st11 {
        fill: url(#_未命名的渐变_3);
      }

      .st12 {
        fill: url(#_未命名的渐变);
      }

      .st5 {
        fill-opacity: .3;
      }

      .st6 {
        fill-opacity: 0;
      }

      .st7 {
        fill-opacity: .7;
      }

      .st13 {
        fill: #00d6b9;
      }

      .st14 {
        fill: url(#_未命名的渐变_2);
      }
    </style><radialGradient
       id="_未命名的渐变"
       data-name="未命名的渐变"
       cx="123.9"
       cy="-40.2"
       fx="123.9"
       fy="-40.2"
       r="59.4"
       gradientTransform="translate(-26.8 25.5) scale(.6 -.7)"
       gradientUnits="userSpaceOnUse"><stop
         offset="0"
         stop-color="#db202e"
         id="stop1" /><stop
         offset="1"
         stop-color="#e01b24"
         id="stop2" /></radialGradient><radialGradient
       id="_未命名的渐变_2"
       data-name="未命名的渐变 2"
       cx="67.6"
       cy="26.8"
       fx="67.6"
       fy="26.8"
       r="105.2"
       gradientTransform="translate(-26.6 25.3) scale(.6 -.7)"
       gradientUnits="userSpaceOnUse"><stop
         offset="0"
         stop-color="#ffb648"
         id="stop3" /><stop
         offset="1"
         stop-color="#ff7800"
         stop-opacity="0"
         id="stop4" /></radialGradient><radialGradient
       id="_未命名的渐变_3"
       data-name="未命名的渐变 3"
       cx="61.7"
       cy="18.6"
       fx="61.7"
       fy="18.6"
       r="68"
       gradientTransform="translate(-26.8 25.8) scale(.6 -.7)"
       gradientUnits="userSpaceOnUse"><stop
         offset="0"
         stop-color="#c64600"
         id="stop5" /><stop
         offset="1"
         stop-color="#a51d2d"
         id="stop6" /></radialGradient></defs><path
     class="st1"
     d="M47.5,64.1H13.8c-7.6,0-13.8-6.3-13.8-13.8V13.7C0,6.2,6.2,0,13.7,0h36.6c7.5,0,13.7,6.2,13.7,13.7v36.6c0,7.5-6.2,13.7-13.7,13.7h-2.9.1Z"
     id="path6"
     style="fill:#38315e;fill-opacity:1" /><g
     id="g59"
     transform="matrix(1.13868,0,0,1.1395301,-4.3909774,-4.4265415)"><path
       style="opacity:0.2"
       d="m 32.078125,13.001479 c -7.648308,-0.119225 -15.060868,4.614766 -18.216797,11.574219 -3.236814,6.752193 -2.180176,15.258237 2.607422,21.015625 4.860629,6.10906 13.469327,8.869822 20.964844,6.644531 7.888289,-2.144399 13.995705,-9.556915 14.492187,-17.738281 0.106883,-1.168233 0.0835,-2.338494 -0.0332,-3.498047 h -1.492187 c 0.625849,5.987582 -1.765705,12.264386 -6.458985,16.121094 -5.88176,5.129935 -15.257073,5.957693 -21.703125,1.394531 -5.193979,-3.488475 -9.026596,-9.465132 -8.720703,-15.876953 0.36368,-6.28873 3.932129,-12.387754 9.308594,-15.691406 2.792342,-1.612615 6.010401,-2.451272 9.232422,-2.447266 2.032059,-0.01582 4.038749,0.348708 5.941406,1.015625 V 15.18312 c 0,-0.442474 0.266756,-0.824112 0.636719,-1.027344 -2.098019,-0.747757 -4.312246,-1.151011 -6.558594,-1.154297 z m 7.105469,1.996094 C 39.081877,14.997573 39,15.081396 39,15.18312 v 2.542968 c 2.49e-4,0.101546 0.08205,0.273438 0.183594,0.273438 h 8.927734 c 1.067169,0 1.888672,0.07541 1.888672,1.142578 v 1.855469 H 39.183594 C 39.081877,20.997573 39,21.171239 39,21.272964 v 8.539062 c 0,0.101718 0.08188,0.185547 0.183594,0.185547 l 13.541015,0.002 c 0.10783,-8.04e-4 0.192281,-0.09581 0.181641,-0.203125 C 52.806073,28.767021 51.938582,26.99412 50.904297,26.99762 H 42 V 23.999526 H 52.816406 C 52.918123,23.999526 53,23.896172 53,23.794448 v -4.839844 c 0,-2.185075 -1.771956,-3.957031 -3.957031,-3.957031 z M 32,18.999526 c -7.457295,0 -13.677312,6.237173 -14.162109,13.664062 -0.01316,0.178475 0.131509,0.339436 0.310547,0.335938 H 32 45.851562 c 0.179038,0.0035 0.323707,-0.157463 0.310547,-0.335938 -0.03682,-0.564115 -0.115767,-1.117838 -0.216797,-1.666015 H 39.183594 C 38.527067,30.997573 38,30.454186 38,29.812026 v -8.539062 c 0,-0.32107 0.07038,-0.478188 0.195312,-0.6875 0.0075,-0.01256 0.02087,-0.02931 0.0293,-0.04297 C 36.33843,19.564876 34.226461,18.999526 32,18.999526 Z m -12.892578,17 c -0.116862,0.266907 -0.225806,0.378879 -0.285156,0.560547 -0.05938,0.194111 -0.06002,0.396981 -0.0039,0.591797 0.163425,0.536127 0.337719,1.065065 0.517579,1.572265 0.06026,0.171641 0.165049,0.275391 0.277343,0.275391 h 25.185547 c 0.112297,0 0.21662,-0.103754 0.277344,-0.275391 0.179859,-0.5072 0.354608,-1.036138 0.517578,-1.572265 0.0565,-0.194754 0.05555,-0.39767 -0.0039,-0.591797 -0.05935,-0.181668 -0.168746,-0.29364 -0.285156,-0.560547 z m 2.580078,6 c -0.265212,0 -0.493896,0.280906 -0.548828,0.673828 -0.05494,0.392924 0.07761,0.790688 0.320312,0.953125 3.293761,2.206954 6.938815,3.373047 10.541016,3.373047 3.60175,0 7.247255,-1.166093 10.541016,-3.373047 0.242267,-0.162437 0.376295,-0.56064 0.322265,-0.953125 -0.05403,-0.392483 -0.285571,-0.673828 -0.550781,-0.673828 z"
       id="path2-0" /><path
       style="fill:#ff728a"
       d="M 32,18 C 24.542705,18 18.322688,24.237173 17.837891,31.664062 17.824731,31.842537 17.9694,32.003498 18.148438,32 H 32 45.851562 c 0.179038,0.0035 0.323707,-0.157463 0.310547,-0.335938 -0.03682,-0.564116 -0.115768,-1.117838 -0.216797,-1.666015 H 39.183594 C 38.527067,29.998047 38,29.45466 38,28.8125 v -8.539062 c 0,-0.321069 0.07038,-0.478188 0.195312,-0.6875 0.0075,-0.01256 0.02087,-0.02931 0.0293,-0.04297 C 36.338433,18.565349 34.226461,18 32,18 Z"
       id="path3-6" /><path
       style="fill:#3af5e9"
       d="m 32.078125,12.001953 c -7.648308,-0.119225 -15.060868,4.614766 -18.216797,11.574219 -3.236814,6.752193 -2.180176,15.258237 2.607422,21.015625 4.860629,6.10906 13.469327,8.869822 20.964844,6.644531 7.888289,-2.144399 13.995705,-9.556915 14.492187,-17.738281 0.106883,-1.168233 0.0835,-2.338494 -0.0332,-3.498047 h -1.492187 c 0.625849,5.987582 -1.765705,12.264386 -6.458985,16.121094 -5.88176,5.129935 -15.257073,5.957693 -21.703125,1.394531 C 17.044305,44.02715 13.211688,38.050493 13.517581,31.638672 13.881261,25.349942 17.44971,19.250918 22.826175,15.947266 25.618517,14.334651 28.836573,13.495994 32.058594,13.5 34.090653,13.484179 36.097343,13.848708 38,14.515625 V 14.183594 C 38,13.74112 38.266756,13.359482 38.636719,13.15625 36.5387,12.408493 34.324473,12.005239 32.078125,12.001953 Z"
       id="path4" /><path
       style="fill:#ff728a"
       d="m 19.612681,38 c -0.112294,0 -0.217291,-0.103366 -0.277549,-0.275007 -0.179859,-0.5072 -0.353784,-1.035999 -0.517209,-1.572126 -0.05611,-0.194816 -0.05438,-0.398327 0.005,-0.592438 C 18.882273,35.378761 18.990001,35.266907 19.106863,35 H 45.30512 c 0.11641,0.266907 0.224596,0.378761 0.283941,0.560429 0.05946,0.194127 0.061,0.397684 0.0045,0.592438 -0.16297,0.536127 -0.336892,1.064926 -0.516751,1.572126 C 45.016086,37.89663 44.911538,38 44.799241,38 Z"
       id="path5-1" /><path
       id="S"
       style="fill:#ff728a"
       d="M 32.000158,46 C 28.397957,46 24.753434,44.833085 21.459673,42.626131 21.216974,42.463694 21.082792,42.06638 21.137727,41.673456 21.192659,41.280534 21.421849,41 21.687061,41 h 20.626194 c 0.26521,0 0.495301,0.280973 0.549335,0.673456 0.05403,0.392485 -0.07968,0.790238 -0.321947,0.952675 C 39.246882,44.833085 35.601908,46 32.000158,46 Z" /><path
       style="fill:#3af5e9"
       d="M 39.184177,28.998142 C 39.082459,28.998142 39,28.913491 39,28.811773 v -8.538657 c 0,-0.101725 0.08246,-0.274231 0.184177,-0.274231 H 50.00037 v -1.856228 c 0,-1.067169 -0.821572,-1.142852 -1.888741,-1.142852 h -8.927452 c -0.101542,0 -0.183928,-0.170916 -0.184177,-0.272462 v -2.544297 c 0,-0.101724 0.08246,-0.184177 0.184177,-0.184177 h 9.859395 C 51.228647,13.998869 53,15.770222 53,17.955297 v 4.839659 c 0,0.101724 -0.08246,0.204088 -0.184177,0.204088 H 42 V 25.9985 h 8.904809 c 1.034285,-0.0035 1.901341,1.768007 2.001518,2.797434 0.01064,0.10731 -0.07318,0.202762 -0.18101,0.203566 z"
       id="path6-5" /><path
       style="opacity:0.2;fill:#ffffff"
       d="m 32.078125,12.001953 c -7.648308,-0.119225 -15.060868,4.614766 -18.216797,11.574219 -1.314527,2.742185 -1.90975,5.773838 -1.845703,8.792969 0.07505,-2.685163 0.676216,-5.353347 1.845703,-7.792969 3.155929,-6.959453 10.568489,-11.693444 18.216797,-11.574219 2.033097,0.003 4.034993,0.349678 5.953125,0.966797 0.07094,-0.348001 0.297907,-0.643547 0.605469,-0.8125 -2.098019,-0.747757 -4.312246,-1.151011 -6.558594,-1.154297 z m 7.105469,1.996094 C 39.081877,13.998047 39,14.08187 39,14.183594 v 1 c 0,-0.101724 0.08188,-0.185547 0.183594,-0.185547 h 9.859375 C 51.228044,14.998047 53,16.770003 53,18.955078 v -1 c 0,-2.185075 -1.771956,-3.957031 -3.957031,-3.957031 z M 32,18 c -7.457295,0 -13.677312,6.237173 -14.162109,13.664062 -0.0067,0.09021 0.02789,0.175997 0.08594,0.238282 C 18.76952,24.817459 24.800518,19 32,19 c 2.14046,0 4.170066,0.532389 6,1.441406 v -0.167968 c 0,-0.32107 0.07038,-0.478188 0.195312,-0.6875 0.0075,-0.01256 0.02087,-0.02931 0.0293,-0.04297 C 36.33843,18.56535 34.226461,18 32,18 Z m 7.183594,1.998047 C 39.081877,19.998047 39,20.171713 39,20.273438 v 1 c 0,-0.101726 0.08188,-0.275391 0.183594,-0.275391 H 50 v -1 z m 2.816406,6 v 1 h 8.904297 c 0.797312,-0.0027 1.492433,1.04773 1.816406,2.001953 h 0.0039 c 0.10783,-8.04e-4 0.192281,-0.09582 0.181641,-0.203125 -0.100177,-1.029427 -0.967668,-2.802328 -2.001953,-2.798828 z M 38,28.8125 v 1 c 0,0.64216 0.527067,1.185547 1.183594,1.185547 h 6.761718 c 0.0545,0.295735 0.10017,0.592853 0.138672,0.892578 0.05224,-0.06123 0.08441,-0.141348 0.07813,-0.226563 -0.03682,-0.564115 -0.115766,-1.117838 -0.216797,-1.666015 H 39.183594 C 38.527067,29.998047 38,29.45466 38,28.8125 Z M 50.400391,30 c 0.03477,0.332628 0.056,0.666052 0.07227,1 h 1.419922 c 0.04503,0.447465 0.06105,0.897734 0.07617,1.347656 0.01701,-0.784663 0.0022,-1.568796 -0.07617,-2.347656 z m 0.08594,2.429688 c -0.150837,5.205651 -2.484046,10.354377 -6.544922,13.691406 -5.88176,5.129935 -15.257073,5.957693 -21.703125,1.394531 -4.840955,-3.251371 -8.495381,-8.664122 -8.722656,-14.576172 -0.173634,6.297011 3.610362,12.14256 8.722656,15.576172 6.446052,4.563162 15.821365,3.735404 21.703125,-1.394531 4.32078,-3.550605 6.684288,-9.152498 6.544922,-14.691406 z M 19.107422,35 c -0.116862,0.266907 -0.225806,0.378879 -0.285156,0.560547 -0.05938,0.194111 -0.06002,0.396981 -0.0039,0.591797 0.02622,0.08602 0.05723,0.166364 0.08398,0.251953 0.0604,-0.11552 0.120841,-0.211903 0.205078,-0.404297 H 45.30469 c 0.08391,0.192394 0.144572,0.288777 0.205078,0.404297 0.02673,-0.08559 0.05784,-0.165934 0.08398,-0.251953 0.0565,-0.194754 0.05555,-0.39767 -0.0039,-0.591797 C 45.530499,35.378879 45.421097,35.266907 45.304688,35 Z m 2.580078,6 c -0.265212,0 -0.493896,0.280906 -0.548828,0.673828 -0.03417,0.244395 0.01123,0.48348 0.103516,0.673828 C 21.345444,42.137812 21.505575,42 21.6875,42 h 20.625 c 0.181205,0 0.341423,0.137312 0.445312,0.345703 0.09214,-0.190218 0.138982,-0.428431 0.105469,-0.671875 C 42.809247,41.281345 42.57771,41 42.3125,41 Z"
       id="path8-4" /></g></svg>

<svg xmlns="http://www.w3.org/2000/svg" width="64" height="64" version="1.1">
 <circle style="opacity:0.2" cx="32" cy="33" r="28"/>
 <circle style="fill:#38315e" cx="32" cy="32" r="28"/>
 <path style="opacity:0.2" d="m 32.078125,13.001479 c -7.648308,-0.119225 -15.060868,4.614766 -18.216797,11.574219 -3.236814,6.752193 -2.180176,15.258237 2.607422,21.015625 4.860629,6.10906 13.469327,8.869822 20.964844,6.644531 7.888289,-2.144399 13.995705,-9.556915 14.492187,-17.738281 0.106883,-1.168233 0.0835,-2.338494 -0.0332,-3.498047 h -1.492187 c 0.625849,5.987582 -1.765705,12.264386 -6.458985,16.121094 -5.88176,5.129935 -15.257073,5.957693 -21.703125,1.394531 -5.193979,-3.488475 -9.026596,-9.465132 -8.720703,-15.876953 0.36368,-6.28873 3.932129,-12.387754 9.308594,-15.691406 2.792342,-1.612615 6.010401,-2.451272 9.232422,-2.447266 2.032059,-0.01582 4.038749,0.348708 5.941406,1.015625 V 15.18312 c 0,-0.442474 0.266756,-0.824112 0.636719,-1.027344 -2.098019,-0.747757 -4.312246,-1.151011 -6.558594,-1.154297 z m 7.105469,1.996094 C 39.081877,14.997573 39,15.081396 39,15.18312 v 2.542968 c 2.49e-4,0.101546 0.08205,0.273438 0.183594,0.273438 h 8.927734 c 1.067169,0 1.888672,0.07541 1.888672,1.142578 v 1.855469 H 39.183594 C 39.081877,20.997573 39,21.171239 39,21.272964 v 8.539062 c 0,0.101718 0.08188,0.185547 0.183594,0.185547 l 13.541015,0.002 c 0.10783,-8.04e-4 0.192281,-0.09581 0.181641,-0.203125 -0.100177,-1.029427 -0.967668,-2.802328 -2.001953,-2.798828 H 42 V 23.999526 H 52.816406 C 52.918123,23.999526 53,23.896172 53,23.794448 v -4.839844 c 0,-2.185075 -1.771956,-3.957031 -3.957031,-3.957031 z M 32,18.999526 c -7.457295,0 -13.677312,6.237173 -14.162109,13.664062 -0.01316,0.178475 0.131509,0.339436 0.310547,0.335938 H 32 45.851562 c 0.179038,0.0035 0.323707,-0.157463 0.310547,-0.335938 -0.03682,-0.564115 -0.115767,-1.117838 -0.216797,-1.666015 H 39.183594 C 38.527067,30.997573 38,30.454186 38,29.812026 v -8.539062 c 0,-0.32107 0.07038,-0.478188 0.195312,-0.6875 0.0075,-0.01256 0.02087,-0.02931 0.0293,-0.04297 C 36.33843,19.564876 34.226461,18.999526 32,18.999526 Z m -12.892578,17 c -0.116862,0.266907 -0.225806,0.378879 -0.285156,0.560547 -0.05938,0.194111 -0.06002,0.396981 -0.0039,0.591797 0.163425,0.536127 0.337719,1.065065 0.517579,1.572265 0.06026,0.171641 0.165049,0.275391 0.277343,0.275391 h 25.185547 c 0.112297,0 0.21662,-0.103754 0.277344,-0.275391 0.179859,-0.5072 0.354608,-1.036138 0.517578,-1.572265 0.0565,-0.194754 0.05555,-0.39767 -0.0039,-0.591797 -0.05935,-0.181668 -0.168746,-0.29364 -0.285156,-0.560547 z m 2.580078,6 c -0.265212,0 -0.493896,0.280906 -0.548828,0.673828 -0.05494,0.392924 0.07761,0.790688 0.320312,0.953125 3.293761,2.206954 6.938815,3.373047 10.541016,3.373047 3.60175,0 7.247255,-1.166093 10.541016,-3.373047 0.242267,-0.162437 0.376295,-0.56064 0.322265,-0.953125 -0.05403,-0.392483 -0.285571,-0.673828 -0.550781,-0.673828 z"/>
 <path style="fill:#ff728a" d="M 32,18 C 24.542705,18 18.322688,24.237173 17.837891,31.664062 17.824731,31.842537 17.9694,32.003498 18.148438,32 H 32 45.851562 c 0.179038,0.0035 0.323707,-0.157463 0.310547,-0.335938 -0.03682,-0.564116 -0.115768,-1.117838 -0.216797,-1.666015 H 39.183594 C 38.527067,29.998047 38,29.45466 38,28.8125 v -8.539062 c 0,-0.321069 0.07038,-0.478188 0.195312,-0.6875 0.0075,-0.01256 0.02087,-0.02931 0.0293,-0.04297 C 36.338433,18.565349 34.226461,18 32,18 Z"/>
 <path style="fill:#3af5e9" d="m 32.078125,12.001953 c -7.648308,-0.119225 -15.060868,4.614766 -18.216797,11.574219 -3.236814,6.752193 -2.180176,15.258237 2.607422,21.015625 4.860629,6.10906 13.469327,8.869822 20.964844,6.644531 7.888289,-2.144399 13.995705,-9.556915 14.492187,-17.738281 0.106883,-1.168233 0.0835,-2.338494 -0.0332,-3.498047 h -1.492187 c 0.625849,5.987582 -1.765705,12.264386 -6.458985,16.121094 -5.88176,5.129935 -15.257073,5.957693 -21.703125,1.394531 -5.193979,-3.488475 -9.026596,-9.465132 -8.720703,-15.876953 0.36368,-6.28873 3.932129,-12.387754 9.308594,-15.691406 C 25.618517,14.334651 28.836573,13.495994 32.058594,13.5 34.090653,13.484179 36.097343,13.848708 38,14.515625 V 14.183594 C 38,13.74112 38.266756,13.359482 38.636719,13.15625 36.5387,12.408493 34.324473,12.005239 32.078125,12.001953 Z"/>
 <path style="fill:#ff728a" d="m 19.612681,38 c -0.112294,0 -0.217291,-0.103366 -0.277549,-0.275007 -0.179859,-0.5072 -0.353784,-1.035999 -0.517209,-1.572126 -0.05611,-0.194816 -0.05438,-0.398327 0.005,-0.592438 C 18.882273,35.378761 18.990001,35.266907 19.106863,35 H 45.30512 c 0.11641,0.266907 0.224596,0.378761 0.283941,0.560429 0.05946,0.194127 0.061,0.397684 0.0045,0.592438 -0.16297,0.536127 -0.336892,1.064926 -0.516751,1.572126 C 45.016086,37.89663 44.911538,38 44.799241,38 Z"/>
 <path id="S" style="fill:#ff728a" d="M 32.000158,46 C 28.397957,46 24.753434,44.833085 21.459673,42.626131 21.216974,42.463694 21.082792,42.06638 21.137727,41.673456 21.192659,41.280534 21.421849,41 21.687061,41 h 20.626194 c 0.26521,0 0.495301,0.280973 0.549335,0.673456 0.05403,0.392485 -0.07968,0.790238 -0.321947,0.952675 C 39.246882,44.833085 35.601908,46 32.000158,46 Z"/>
 <path style="fill:#3af5e9" d="M 39.184177,28.998142 C 39.082459,28.998142 39,28.913491 39,28.811773 v -8.538657 c 0,-0.101725 0.08246,-0.274231 0.184177,-0.274231 H 50.00037 v -1.856228 c 0,-1.067169 -0.821572,-1.142852 -1.888741,-1.142852 h -8.927452 c -0.101542,0 -0.183928,-0.170916 -0.184177,-0.272462 v -2.544297 c 0,-0.101724 0.08246,-0.184177 0.184177,-0.184177 h 9.859395 C 51.228647,13.998869 53,15.770222 53,17.955297 v 4.839659 c 0,0.101724 -0.08246,0.204088 -0.184177,0.204088 H 42 V 25.9985 h 8.904809 c 1.034285,-0.0035 1.901341,1.768007 2.001518,2.797434 0.01064,0.10731 -0.07318,0.202762 -0.18101,0.203566 z"/>
 <path style="fill:#ffffff;opacity:0.1" d="M 32 4 A 28 28 0 0 0 4 32 A 28 28 0 0 0 4.0058594 32.509766 A 28 28 0 0 1 32 5 A 28 28 0 0 1 59.994141 32.490234 A 28 28 0 0 0 60 32 A 28 28 0 0 0 32 4 z"/>
 <path style="fill:#ffffff;opacity:0.2" d="M 32.078125 12.001953 C 24.429817 11.882728 17.017257 16.616719 13.861328 23.576172 C 12.546801 26.318357 11.951578 29.35001 12.015625 32.369141 C 12.090678 29.683978 12.691841 27.015794 13.861328 24.576172 C 17.017257 17.616719 24.429817 12.882728 32.078125 13.001953 C 34.111222 13.004927 36.113118 13.351631 38.03125 13.96875 C 38.102191 13.620749 38.329157 13.325203 38.636719 13.15625 C 36.5387 12.408493 34.324473 12.005239 32.078125 12.001953 z M 39.183594 13.998047 C 39.081877 13.998047 39 14.08187 39 14.183594 L 39 15.183594 C 39 15.08187 39.081877 14.998047 39.183594 14.998047 L 49.042969 14.998047 C 51.228044 14.998047 53 16.770003 53 18.955078 L 53 17.955078 C 53 15.770003 51.228044 13.998047 49.042969 13.998047 L 39.183594 13.998047 z M 32 18 C 24.542705 18 18.322688 24.237173 17.837891 31.664062 C 17.831239 31.754268 17.865784 31.840059 17.923828 31.902344 C 18.76952 24.817459 24.800518 19 32 19 C 34.14046 19 36.170066 19.532389 38 20.441406 L 38 20.273438 C 38 19.952368 38.07038 19.79525 38.195312 19.585938 C 38.202813 19.573377 38.216179 19.556629 38.224609 19.542969 C 36.33843 18.56535 34.226461 18 32 18 z M 39.183594 19.998047 C 39.081877 19.998047 39 20.171713 39 20.273438 L 39 21.273438 C 39 21.171712 39.081877 20.998047 39.183594 20.998047 L 50 20.998047 L 50 19.998047 L 39.183594 19.998047 z M 42 25.998047 L 42 26.998047 L 50.904297 26.998047 C 51.701609 26.995349 52.39673 28.045777 52.720703 29 L 52.724609 29 C 52.832439 28.999196 52.91689 28.904185 52.90625 28.796875 C 52.806073 27.767448 51.938582 25.994547 50.904297 25.998047 L 42 25.998047 z M 38 28.8125 L 38 29.8125 C 38 30.45466 38.527067 30.998047 39.183594 30.998047 L 45.945312 30.998047 C 45.999817 31.293782 46.045482 31.5909 46.083984 31.890625 C 46.136222 31.82939 46.168393 31.749277 46.162109 31.664062 C 46.125289 31.099947 46.046343 30.546224 45.945312 29.998047 L 39.183594 29.998047 C 38.527067 29.998047 38 29.45466 38 28.8125 z M 50.400391 30 C 50.435158 30.332628 50.45639 30.666052 50.472656 31 L 51.892578 31 C 51.937612 31.447465 51.953632 31.897734 51.96875 32.347656 C 51.985763 31.562993 51.970964 30.77886 51.892578 30 L 50.400391 30 z M 50.486328 32.429688 C 50.335491 37.635339 48.002282 42.784065 43.941406 46.121094 C 38.059646 51.251029 28.684333 52.078787 22.238281 47.515625 C 17.397326 44.264254 13.7429 38.851503 13.515625 32.939453 C 13.341991 39.236464 17.125987 45.082013 22.238281 48.515625 C 28.684333 53.078787 38.059646 52.251029 43.941406 47.121094 C 48.262186 43.570489 50.625694 37.968596 50.486328 32.429688 z M 19.107422 35 C 18.99056 35.266907 18.881616 35.378879 18.822266 35.560547 C 18.762886 35.754658 18.762249 35.957528 18.818359 36.152344 C 18.84458 36.238363 18.875585 36.318708 18.902344 36.404297 C 18.962744 36.288777 19.023185 36.192394 19.107422 36 L 45.304688 36 C 45.388599 36.192394 45.44926 36.288777 45.509766 36.404297 C 45.536492 36.318708 45.567602 36.238363 45.59375 36.152344 C 45.65025 35.95759 45.649304 35.754674 45.589844 35.560547 C 45.530499 35.378879 45.421097 35.266907 45.304688 35 L 19.107422 35 z M 21.6875 41 C 21.422288 41 21.193604 41.280906 21.138672 41.673828 C 21.104503 41.918223 21.149902 42.157308 21.242188 42.347656 C 21.345444 42.137812 21.505575 42 21.6875 42 L 42.3125 42 C 42.493705 42 42.653923 42.137312 42.757812 42.345703 C 42.849954 42.155485 42.896794 41.917272 42.863281 41.673828 C 42.809247 41.281345 42.57771 41 42.3125 41 L 21.6875 41 z"/>
</svg>
